images/icon-publication.svg

<svg width="20" height="22" viewBox="0 0 20 22" fill="none" xmlns="http://www.w3.org/2000/svg">
<path d="M14.2043 9.45312C14.2043 8.97849 13.814 8.59375 13.3326 8.59375H4.35379C3.87233 8.59375 3.48206 8.97849 3.48206 9.45312C3.48206 9.92776 3.87233 10.3125 4.35379 10.3125H13.3326C13.814 10.3125 14.2043 9.92776 14.2043 9.45312Z" fill="#CCCCCC"/>
<path d="M4.35379 12.0312C3.87233 12.0312 3.48206 12.416 3.48206 12.8906C3.48206 13.3653 3.87233 13.75 4.35379 13.75H9.80691C10.2884 13.75 10.6786 13.3653 10.6786 12.8906C10.6786 12.416 10.2884 12.0312 9.80691 12.0312H4.35379Z" fill="#CCCCCC"/>
<path d="M6.40234 20.2812H3.4869C2.52556 20.2812 1.74345 19.5102 1.74345 18.5625V3.4375C1.74345 2.48978 2.52556 1.71875 3.4869 1.71875H14.2043C15.1656 1.71875 15.9477 2.48978 15.9477 3.4375V8.72266C15.9477 9.19729 16.338 9.58203 16.8195 9.58203C17.3009 9.58203 17.6912 9.19729 17.6912 8.72266V3.4375C17.6912 1.54206 16.127 0 14.2043 0H3.4869C1.56422 0 0 1.54206 0 3.4375V18.5625C0 20.4579 1.56422 22 3.4869 22H6.40234C6.88379 22 7.27407 21.6153 7.27407 21.1406C7.27407 20.666 6.88379 20.2812 6.40234 20.2812Z" fill="#CCCCCC"/>
<path d="M19.2352 12.4425C18.2156 11.4373 16.5565 11.4373 15.5375 12.4419L10.7516 17.1495C10.6499 17.2495 10.575 17.3726 10.5332 17.5081L9.49094 20.8908C9.39854 21.1907 9.47904 21.5164 9.70107 21.7407C9.8674 21.9088 10.0934 22 10.3251 22C10.4026 22 10.4809 21.9898 10.5578 21.9687L14.0763 21.0079C14.2211 20.9684 14.353 20.8926 14.4594 20.788L19.2353 16.0886C20.2549 15.0834 20.2549 13.4478 19.2352 12.4425ZM13.39 19.4119L11.6198 19.8953L12.1379 18.214L15.3671 15.0375L16.6002 16.2531L13.39 19.4119ZM18.0031 14.8728L17.8342 15.0389L16.6013 13.8236L16.7697 13.658C17.1096 13.3229 17.6626 13.3229 18.0025 13.658C18.3424 13.993 18.3424 14.5382 18.0031 14.8728Z" fill="#CCCCCC"/>
<path d="M13.3326 5.15625H4.35379C3.87233 5.15625 3.48206 5.54099 3.48206 6.01562C3.48206 6.49026 3.87233 6.875 4.35379 6.875H13.3326C13.814 6.875 14.2043 6.49026 14.2043 6.01562C14.2043 5.54099 13.814 5.15625 13.3326 5.15625Z" fill="#CCCCCC"/>
</svg>

<svg width="20" height="22" fill="none" xmlns="http://www.w3.org/2000/svg"><path d="M14.204 9.453c0-.475-.39-.86-.871-.86h-8.98a.866.866 0 00-.87.86c0 .475.39.86.87.86h8.98a.866.866 0 00.871-.86zm-9.85 2.578a.866.866 0 00-.872.86c0 .474.39.859.872.859h5.453a.866.866 0 00.872-.86.866.866 0 00-.872-.859H4.354z" fill="#CCC"/><path d="M6.402 20.281H3.487c-.961 0-1.744-.77-1.744-1.718V3.438c0-.948.783-1.72 1.744-1.72h10.717c.962 0 1.744.772 1.744 1.72v5.285c0 .474.39.859.872.859a.866.866 0 00.871-.86V3.439C17.691 1.542 16.127 0 14.204 0H3.487C1.564 0 0 1.542 0 3.438v15.124C0 20.459 1.564 22 3.487 22h2.915a.866.866 0 00.872-.86.866.866 0 00-.872-.859z" fill="#CCC"/><path d="M19.235 12.443a2.645 2.645 0 00-3.697-.001l-4.786 4.707a.857.857 0 00-.219.36L9.491 20.89a.85.85 0 00.21.85.878.878 0 00.857.228l3.518-.961a.875.875 0 00.383-.22l4.776-4.7a2.555 2.555 0 000-3.646zm-5.845 6.969l-1.77.483.518-1.681 3.23-3.176 1.232 1.215-3.21 3.159zm4.613-4.54l-.169.167-1.233-1.215.169-.166a.882.882 0 011.233 0c.34.335.34.88 0 1.215zm-4.67-9.716h-8.98a.866.866 0 00-.87.86c0 .474.39.859.87.859h8.98a.866.866 0 00.871-.86.865.865 0 00-.871-.859z" fill="#CCC"/></svg>
